src/assets/duotone/Html5.svg

<svg width="24" height="24" viewBox="0 0 24 24"  xmlns="http://www.w3.org/2000/svg">
<path opacity="0.58" d="M24 0H0V24H24V0Z" />
<path opacity="0.4" d="M4.12009 2H19.8901C20.4901 2 20.9501 2.52 20.8801 3.11L19.0801 19.33C19.0401 19.73 18.7501 20.07 18.3601 20.18L12.2801 21.92C12.1001 21.97 11.9101 21.97 11.7301 21.92L5.65012 20.18C5.26012 20.07 4.98009 19.73 4.93009 19.33L3.1301 3.11C3.0601 2.52 3.52009 2 4.12009 2Z" />
<path d="M11.7498 18C11.6798 18 11.6098 17.99 11.5398 17.97L8.0398 16.97C7.7198 16.88 7.49982 16.58 7.49982 16.25V14.25C7.49982 13.84 7.83982 13.5 8.24982 13.5C8.65982 13.5 8.99982 13.84 8.99982 14.25V15.68L11.7498 16.47L14.5498 15.67L14.9198 12H8.24982C7.86982 12 7.54982 11.71 7.49982 11.33L6.99982 6.83C6.97982 6.62 7.03983 6.41 7.18983 6.25C7.32983 6.09 7.53982 6 7.74982 6H16.2498C16.6598 6 16.9998 6.34 16.9998 6.75C16.9998 7.16 16.6598 7.5 16.2498 7.5H8.58985L8.91981 10.5H15.7498C15.9598 10.5 16.1598 10.59 16.3098 10.75C16.4498 10.91 16.5198 11.12 16.4998 11.33L15.9998 16.33C15.9698 16.64 15.7598 16.89 15.4598 16.98L11.9598 17.98C11.8898 17.99 11.8198 18 11.7498 18Z" />
</svg>

<?xml version="1.0" encoding="UTF-8"?>
<svg width="24" height="24" viewBox="0 0 24 24" xmlns="http://www.w3.org/2000/svg">
 <path d="M24 0H0V24H24V0Z" opacity=".58"/>
 <path d="m4.1201 2h15.77c0.6 0 1.06 0.52 0.99 1.11l-1.8 16.22c-0.04 0.4-0.33 0.74-0.72 0.85l-6.08 1.74c-0.18 0.05-0.37 0.05-0.55 0l-6.08-1.74c-0.39-0.11-0.67003-0.45-0.72003-0.85l-1.8-16.22c-0.07-0.59 0.38999-1.11 0.98999-1.11z" opacity=".4"/>
 <path d="m11.75 18c-0.07 0-0.14-0.01-0.21-0.03l-3.5-1c-0.32-0.09-0.53998-0.39-0.53998-0.72v-2c0-0.41 0.34-0.75 0.75-0.75s0.75 0.34 0.75 0.75v1.43l2.75 0.79 2.8-0.8 0.37-3.67h-6.67c-0.38 0-0.7-0.29-0.75-0.67l-0.5-4.5c-0.02-0.21 0.04001-0.42 0.19001-0.58 0.14-0.16 0.34999-0.25 0.55999-0.25h8.5c0.41 0 0.75 0.34 0.75 0.75s-0.34 0.75-0.75 0.75h-7.66l0.32996 3h6.83c0.21 0 0.41 0.09 0.56 0.25 0.14 0.16 0.21 0.37 0.19 0.58l-0.5 5c-0.03 0.31-0.24 0.56-0.54 0.65l-3.5 1c-0.07 0.01-0.14 0.02-0.21 0.02z"/>
</svg>
